src/packages/tokens/img/vrt.svg

<svg width="24" height="24" viewBox="0 0 24 24" fill="none" xmlns="http://www.w3.org/2000/svg">
<g clip-path="url(#clip0_724_4497)">
<circle cx="12" cy="12" r="12" fill="#F8DA49"/>
<path fill-rule="evenodd" clip-rule="evenodd" d="M10.9294 11.0587L9 7.19995H6L12 19.2L13.462 16.2759L10.9207 11.0629L10.9294 11.0587ZM12.657 11.886L14.138 14.924L18 7.19995H15L12.657 11.886Z" fill="black"/>
</g>
<defs>
<clipPath id="clip0_724_4497">
<rect width="24" height="24" fill="white"/>
</clipPath>
</defs>
</svg>

<svg xmlns="http://www.w3.org/2000/svg" width="24" height="24" fill="none" xmlns:v="https://vecta.io/nano"><g clip-path="url(#A)"><circle cx="12" cy="12" r="12" fill="#f8da49"/><path fill-rule="evenodd" d="M10.929 11.059L9 7.2H6l6 12 1.462-2.924-2.541-5.213.009-.004zm1.728.827l1.481 3.038L18 7.2h-3l-2.343 4.686z" fill="#000"/></g><defs><clipPath id="A"><path fill="#fff" d="M0 0h24v24H0z"/></clipPath></defs></svg>
